X: 2084
T: Tootke Pie Polka
R: polka
C: Rick Gagne
N: 2001 on anglo concertina
N: composed in key of C on C/G concertina
M: 2/4
L: 1/8
Q: 2/4=70
K: D
A | "D"dA "G"B/A/G | "D"FA df | "Em"ge "G"f/e/d | "A"ed Bc | 
"D"dA "G"B/A/G | "D"FA df | "Em"ge "A"Ac | "D"d2 d :|
f | "A"eA AB | cd eg | "D"fd de | fe d/e/f | 
"A"eA AB | cd eg | "D"f/e/d "A"ec | "D"d2 d :|
